24x24/apps/fifteenpuzzle.svg

<svg xmlns="http://www.w3.org/2000/svg" width="24" height="24" version="1.1">
 <rect style="opacity:0.2" width="21" height="21" x="2" y="1.5" rx="1.615" ry="1.615"/>
 <path style="fill:#f4f4f7" d="M 3.6153846,0.99999996 C 2.7204615,0.99999996 2,1.7204615 2,2.6153846 V 8 H 9 V 0.99999996 Z"/>
 <rect style="fill:#f3f3f3" width="7" height="7" x="9" y="1"/>
 <path style="fill:#f4f4f7" d="M 21.384615,0.99999996 C 22.279539,0.99999996 23,1.7204615 23,2.6153846 V 8 H 16 V 0.99999996 Z"/>
 <rect style="fill:#f4f4f7" width="7" height="7" x="9" y="8"/>
 <rect style="fill:#f3f3f3" width="7" height="7" x="2" y="8"/>
 <rect style="fill:#f3f3f3" width="7" height="7" x="16" y="8"/>
 <path style="fill:#bebebb" d="M 3.6153846,22 C 2.7204615,22 2,21.279538 2,20.384615 V 15 h 7 v 7 z"/>
 <rect style="fill:#f3f3f3" width="7" height="7" x="9" y="-22" transform="scale(1,-1)"/>
 <path style="fill:#f4f4f7" d="M 21.384615,22 C 22.279539,22 23,21.279538 23,20.384615 V 15 h -7 v 7 z"/>
 <path style="opacity:0.1" d="M 23,4.1914062 A 8.9893763,8.244348 0 0 0 18.691406,8.5 h 1.535156 A 7.5338771,6.9094787 0 0 1 23,5.6679688 Z M 9,4.2460938 v 1.4082031 c 1.12,0.5297352 2.382368,0.8300781 3.71875,0.8300781 A 8.7071756,8.7071756 0 0 0 16,5.8476562 V 4.484375 C 15.021853,4.9723159 13.905868,5.25 12.71875,5.25 11.350868,5.25 10.076765,4.8814466 9,4.2460938 Z M 4.8515625,8.5 A 7.4543436,7.4543436 0 0 1 5.5996094,11.765625 7.4440628,7.4440623 0 0 1 4.6035156,15.5 H 6.171875 A 8.8099378,8.8099373 0 0 0 7,11.765625 8.8140936,8.8140936 0 0 0 6.3730469,8.5 Z M 9,11.191406 v 1.365235 c 1.271099,0.65505 2.294339,1.686202 2.923828,2.943359 h 0.695313 c -0.414347,1.039195 -0.62722,2.146871 -0.626953,3.265625 -7.93e-4,1.290081 0.282206,2.565495 0.828124,3.734375 h 1.570313 c -0.655562,-1.134925 -0.999847,-2.423721 -0.998047,-3.734375 0,-1.1725 0.268985,-2.2795 0.748047,-3.265625 H 13.308594 C 12.514875,13.567441 10.965264,12.01783 9,11.191406 Z m 10.71875,0.322266 c -1.336381,0 -2.598955,0.302296 -3.71875,0.832031 v 1.408203 c 1.076767,-0.635353 2.350665,-1.003907 3.71875,-1.003906 1.186915,0 2.303102,0.277478 3.28125,0.765625 V 12.150391 A 8.7071767,8.7071767 0 0 0 19.71875,11.513672 Z M 18.691406,15.5 A 9.4380166,9.1675113 0 0 0 23,19.808594 V 18.167969 A 7.9075075,7.6808685 0 0 1 20.353516,15.5 Z"/>
 <path style="fill:#2e7bdd" d="M 23 3.6914062 A 8.9893763 8.244348 0 0 0 18.691406 8 L 20.226562 8 A 7.5338771 6.9094787 0 0 1 23 5.1679688 L 23 3.6914062 z M 9 3.7460938 L 9 5.1542969 C 10.12 5.6840321 11.382368 5.984375 12.71875 5.984375 A 8.7071756 8.7071756 0 0 0 16 5.3476562 L 16 3.984375 C 15.021853 4.4723159 13.905868 4.75 12.71875 4.75 C 11.350868 4.75 10.076765 4.3814466 9 3.7460938 z M 4.8515625 8 A 7.4543436 7.4543436 0 0 1 5.5996094 11.265625 A 7.4440628 7.4440623 0 0 1 4.6035156 15 L 6.171875 15 A 8.8099378 8.8099373 0 0 0 7 11.265625 A 8.8140936 8.8140936 0 0 0 6.3730469 8 L 4.8515625 8 z M 9 10.691406 L 9 12.056641 C 10.271099 12.711691 11.294339 13.742843 11.923828 15 L 12.619141 15 C 12.204794 16.039195 11.991921 17.146871 11.992188 18.265625 C 11.991395 19.555706 12.274394 20.83112 12.820312 22 L 14.390625 22 C 13.735063 20.865075 13.390778 19.576279 13.392578 18.265625 C 13.392578 17.093125 13.661563 15.986125 14.140625 15 L 13.308594 15 C 12.514875 13.067441 10.965264 11.51783 9 10.691406 z M 19.71875 11.013672 C 18.382369 11.013672 17.119795 11.315968 16 11.845703 L 16 13.253906 C 17.076767 12.618553 18.350665 12.249999 19.71875 12.25 C 20.905665 12.25 22.021852 12.527478 23 13.015625 L 23 11.650391 A 8.7071767 8.7071767 0 0 0 19.71875 11.013672 z M 18.691406 15 A 9.4380166 9.1675113 0 0 0 23 19.308594 L 23 17.667969 A 7.9075075 7.6808685 0 0 1 20.353516 15 L 18.691406 15 z"/>
 <path style="opacity:0.2;fill:#f4f4f7" d="M 3.6152344 1 C 2.7203113 1 2 1.7203113 2 2.6152344 L 2 3.1152344 C 2 2.2203113 2.7203113 1.5 3.6152344 1.5 L 21.384766 1.5 C 22.279689 1.5 23 2.2203113 23 3.1152344 L 23 2.6152344 C 23 1.7203113 22.279689 1 21.384766 1 L 3.6152344 1 z"/>
</svg>

<svg xmlns="http://www.w3.org/2000/svg" width="24" height="24"><rect style="opacity:.2" width="21" height="21" x="2" y="1.5" rx="1.615" ry="1.615"/><path style="fill:#f4f4f7" d="M3.615 1C2.72 1 2 1.72 2 2.615V8h7V1z"/><path style="fill:#f3f3f3" d="M9 1h7v7H9z"/><path style="fill:#f4f4f7" d="M21.385 1C22.28 1 23 1.72 23 2.615V8h-7V1zM9 8h7v7H9z"/><path style="fill:#f3f3f3" d="M2 8h7v7H2zM16 8h7v7h-7z"/><path style="fill:#bebebb" d="M3.615 22C2.72 22 2 21.28 2 20.385V15h7v7z"/><path style="fill:#f3f3f3" transform="scale(1 -1)" d="M9-22h7v7H9z"/><path style="fill:#f4f4f7" d="M21.385 22C22.28 22 23 21.28 23 20.385V15h-7v7z"/><path style="opacity:.1" d="M23 4.191A8.99 8.244 0 0 0 18.691 8.5h1.536A7.534 6.91 0 0 1 23 5.668zM9 4.246v1.408c1.12.53 2.382.83 3.719.83A8.707 8.707 0 0 0 16 5.848V4.484a7.335 7.335 0 0 1-3.281.766A7.301 7.301 0 0 1 9 4.246zM4.852 8.5a7.454 7.454 0 0 1 .748 3.266 7.444 7.444 0 0 1-.996 3.734h1.568A8.81 8.81 0 0 0 7 11.766 8.814 8.814 0 0 0 6.373 8.5zM9 11.191v1.366a6.688 6.688 0 0 1 2.924 2.943h.695a8.814 8.814 0 0 0 .201 7h1.57a7.447 7.447 0 0 1-.997-3.734c0-1.173.269-2.28.748-3.266h-.832c-.794-1.933-2.344-3.482-4.309-4.309zm10.719.323a8.681 8.681 0 0 0-3.719.832v1.408a7.3 7.3 0 0 1 3.719-1.004c1.187 0 2.303.277 3.281.766V12.15a8.707 8.707 0 0 0-3.281-.636zM18.69 15.5A9.438 9.168 0 0 0 23 19.809v-1.641a7.908 7.68 0 0 1-2.646-2.668z"/><path style="fill:#2e7bdd" d="M23 3.691A8.99 8.244 0 0 0 18.691 8h1.536A7.534 6.91 0 0 1 23 5.168V3.691zM9 3.746v1.408c1.12.53 2.382.83 3.719.83A8.707 8.707 0 0 0 16 5.348V3.984a7.335 7.335 0 0 1-3.281.766A7.301 7.301 0 0 1 9 3.746zM4.852 8a7.454 7.454 0 0 1 .748 3.266A7.444 7.444 0 0 1 4.604 15h1.568A8.81 8.81 0 0 0 7 11.266 8.814 8.814 0 0 0 6.373 8H4.852zM9 10.691v1.366A6.688 6.688 0 0 1 11.924 15h.695a8.814 8.814 0 0 0 .201 7h1.57a7.447 7.447 0 0 1-.997-3.734c0-1.173.269-2.28.748-3.266h-.832c-.794-1.933-2.344-3.482-4.309-4.309zm10.719.323a8.681 8.681 0 0 0-3.719.832v1.408a7.3 7.3 0 0 1 3.719-1.004c1.187 0 2.303.277 3.281.766V11.65a8.707 8.707 0 0 0-3.281-.636zM18.69 15A9.438 9.168 0 0 0 23 19.309v-1.641A7.908 7.68 0 0 1 20.354 15H18.69z"/><path style="opacity:.2;fill:#f4f4f7" d="M3.615 1C2.72 1 2 1.72 2 2.615v.5C2 2.22 2.72 1.5 3.615 1.5h17.77C22.28 1.5 23 2.22 23 3.115v-.5C23 1.72 22.28 1 21.385 1H3.615z"/></svg>
